X:2260
T:Geand MS
S:John BBelly
M:6/8
L:1/8
Q:13/2160
K:G
FGA BGE|D2G A2B|dBc d2f|g3 g3|!
d3 dBG|D3 D2E|G2B B2G|A3 G2:|
B3 B2A|G3 B2B|d2B AFA|ABA BGB|1 c2d c2B2||